icons/folder-mail.svg

<svg xmlns="http://www.w3.org/2000/svg" viewBox="0 0 32 32"><path fill="#ff5252" d="m13.844 7.536-1.288-1.072A2 2 0 0 0 11.276 6H4a2 2 0 0 0-2 2v16a2 2 0 0 0 2 2h24a2 2 0 0 0 2-2V10a2 2 0 0 0-2-2H15.124a2 2 0 0 1-1.28-.464Z"/><path fill="#ffcdd2" fill-rule="evenodd" d="M14 16v10a2 2 0 0 0 2 2h14a2 2 0 0 0 2-2V16a2 2 0 0 0-2-2H16a2 2 0 0 0-2 2Zm16 2-7 4-7-4v-2l7 4 7-4Z"/></svg>

<svg xmlns="http://www.w3.org/2000/svg" viewBox="0 0 32 32">
  <path d="M13.84376,7.53645l-1.28749-1.0729A2,2,0,0,0,11.27591,6H4A2,2,0,0,0,2,8V24a2,2,0,0,0,2,2H28a2,2,0,0,0,2-2V10a2,2,0,0,0-2-2H15.12412A2,2,0,0,1,13.84376,7.53645Z" style="fill: #ff5252"/>
  <path d="M14,16V26a2,2,0,0,0,2,2H30a2,2,0,0,0,2-2V16a2,2,0,0,0-2-2H16A2,2,0,0,0,14,16Zm16,2-7,4-7-4V16l7,4,7-4Z" style="fill: #ffcdd2;fill-rule: evenodd"/>
</svg>
